X:1
T:Title
%%score 1 { 2 | 3 }
L:1/8
Q:1/4=93
M:4/4
K:D
V:1 treble nm="Grand Piano, Soprano"
V:2 bass nm="Choir Pad, From the Cyber Hymnal™"
V:3 bass 
V:1
 [FA]>[DF] [CE]>D [Fd]2 [FA]2 | [GB]>[Ge] [Gd]>[GB] [FA]4 | [EG]>[EG] [EG]>[CA] [DF]2 [Fd]2 | %3
w: By~Edmund~Simon~Lorenz * * * * *|||
 [Ec]>[DB] [CA]>[D^G] [CA]4 | [FA]>[DF] [CE]>D [Fd]2 [FA]2 | [GB]>[Ge] [Gd]>[GB] [FA]4 | %6
w: |||
 [GB]>[Ac] [Bd]>[GB] [FA][DF]D[DE] | [DF]2 [CE]2 D4 | [FA]>[Fd] [Fd]>[Fd] [Ge]>[Gd] [Gd]>[GB] | %9
w: |||
 [FA]2 [DF]2 [FA]4 | [EG]>[EG] [EG]>[EG] [EG]2 [CA]2 | [DF]>[DF] [DF]>[CE] [DF]4 | %12
w: |||
 [FA]>[Fd] [Fd]>[Fd] [Ge]>[Gd] [Gd]>[GB] | [FA]2 [DF]2 [FA]4 | [GB]>[Ge] [Ge]>[Ge] [Fd]2 [Ec]2 | %15
w: |||
 [Fd]8 |] %16
w: |
V:2
 D>A, G,>F, A,2[K:treble] D2 | D>B, B,>D D4 | C>C C>[K:bass]A, A,2 A,2 | A,>^G, A,>B, A,4 | %4
 A,>A, G,>F, A,2[K:treble] D2 | D>B, B,>D D4 | D>D D>D D[K:bass]A,A,B, | A,2 G,2 F,4 | %8
 D>A, A,>A, B,>B, B,>[K:treble]D | D2 A,2 D4 | C>C C>C C2[K:bass] A,2 | A,>A, A,>A, A,4 | %12
 D>A, A,>A, B,>B, B,>[K:treble]D | D2 A,2 D4 | D>[K:bass]B, B,>B, A,2 A,2 | A,8 |] %16
V:3
 D,>D, D,>D, D,2 D,2 | G,>G, G,>G, D,4 | A,,>A,, A,,>A,, D,2 D,2 | E,>E, E,>E, A,,4 | %4
 D,>D, D,>D, D,2 D,2 | G,>G, G,>G, D,4 | G,>G, G,>G, D,D,F,G, | z2 A,,2 D,4 | %8
 D,>D, D,>D, G,>G, G,>G, | D,2 D,2 D,4 | A,,>A,, A,,>A,, A,,2 A,,2 | D,>D, D,>A,, D,4 | %12
 D,>D, D,>D, G,>G, G,>G, | D,2 D,2 D,4 | G,>G, G,>G, z2 A,,2 | D,8 |] %16

